docs/local/img/sprites/q.svg

<svg width="27" height="18" viewBox="0 0 27 18" xmlns="http://www.w3.org/2000/svg">
<path d="M12.0736 6.22577C12.0396 7.55135 11.9038 8.75484 11.666 9.83623C11.4283 10.8827 11.0717 11.8769 10.5962 12.8188C10.1547 13.7258 9.59434 14.5979 8.91509 15.4351C8.26981 16.2723 7.52264 17.1269 6.67358 17.999L2.90377 16.1676C3.14151 15.8886 3.37925 15.5572 3.61698 15.1734C4.05849 14.4758 4.48302 13.5165 4.89057 12.2955C3.46415 12.0165 2.29245 11.3362 1.37547 10.2548C0.458491 9.13856 0 7.79553 0 6.22577C0 5.35367 0.15283 4.55135 0.458491 3.81879C0.798113 3.05135 1.23962 2.38856 1.78302 1.83042C2.32642 1.27228 2.95472 0.836233 3.66792 0.522279C4.41509 0.173442 5.19623 -0.000976562 6.01132 -0.000976562C6.86038 -0.000976562 7.64151 0.173442 8.35472 0.522279C9.10189 0.836233 9.74717 1.27228 10.2906 1.83042C10.834 2.38856 11.2585 3.05135 11.5642 3.81879C11.9038 4.55135 12.0736 5.35367 12.0736 6.22577ZM27 6.22577C27 7.51647 26.8811 8.68507 26.6434 9.73158C26.4057 10.7781 26.0491 11.7548 25.5736 12.6618C25.1321 13.5688 24.5717 14.4583 23.8925 15.3304C23.2132 16.2025 22.4321 17.092 21.5491 17.999L17.8302 16.1676C18.0679 15.8886 18.3057 15.5572 18.5434 15.1734C18.9849 14.4758 19.4094 13.5165 19.817 12.2955C18.3906 12.0165 17.2019 11.3362 16.2509 10.2548C15.334 9.13856 14.8755 7.79553 14.8755 6.22577C14.8755 5.35367 15.0283 4.55135 15.334 3.81879C15.6736 3.05135 16.1151 2.38856 16.6585 1.83042C17.2019 1.27228 17.8472 0.836233 18.5943 0.522279C19.3415 0.173442 20.1226 -0.000976562 20.9377 -0.000976562C21.7868 -0.000976562 22.5679 0.173442 23.2811 0.522279C24.0283 0.836233 24.6736 1.27228 25.217 1.83042C25.7604 2.38856 26.1849 3.05135 26.4906 3.81879C26.8302 4.55135 27 5.35367 27 6.22577Z"/>
</svg>

<svg width="27" height="18" viewBox="0 0 27 18" xmlns="http://www.w3.org/2000/svg"><path d="M12.074 6.226c-.034 1.325-.17 2.529-.408 3.61a12.963 12.963 0 01-1.07 2.983 13.6 13.6 0 01-1.68 2.616A29.624 29.624 0 016.673 18l-3.77-1.831c.238-.28.475-.61.713-.995.441-.697.866-1.656 1.274-2.877-1.427-.28-2.599-.96-3.516-2.041C.458 9.139 0 7.795 0 6.225c0-.871.153-1.674.458-2.406.34-.768.782-1.43 1.325-1.989A5.955 5.955 0 013.668.522 5.476 5.476 0 016.01 0c.85 0 1.63.174 2.344.523A5.81 5.81 0 0110.29 1.83a6.01 6.01 0 011.273 1.989c.34.732.51 1.535.51 2.407zm14.926 0c0 1.29-.119 2.46-.357 3.506a12.008 12.008 0 01-1.07 2.93 15.124 15.124 0 01-1.68 2.668A32.32 32.32 0 0121.548 18l-3.719-1.831c.238-.28.476-.61.713-.995.442-.697.866-1.656 1.274-2.877a6.209 6.209 0 01-3.566-2.041c-.917-1.116-1.376-2.46-1.376-4.03 0-.871.153-1.674.459-2.406.34-.768.781-1.43 1.325-1.989A5.81 5.81 0 0118.593.522 5.476 5.476 0 0120.938 0c.849 0 1.63.174 2.343.523a5.81 5.81 0 011.936 1.308 6.012 6.012 0 011.274 1.989c.34.732.509 1.535.509 2.407z"/></svg>
